icons/logo-github.svg

<svg width="24" height="24" viewBox="0 0 24 24" fill="none" xmlns="http://www.w3.org/2000/svg">
<path d="M15 21V17.4848C15 16.4805 15.1 16.0788 14.5 15.4762C17.3 15.1749 20 14.0701 20 9.45015C19.9988 8.24994 19.5325 7.09731 18.7 6.23628C19.0905 5.19375 19.0545 4.03842 18.6 3.02241C18.6 3.02241 17.5 2.72111 15.1 4.32805C13.0672 3.79634 10.9328 3.79634 8.9 4.32805C6.5 2.72111 5.4 3.02241 5.4 3.02241C4.94548 4.03842 4.90953 5.19375 5.3 6.23628C4.46745 7.09731 4.00122 8.24994 4 9.45015C4 14.0701 6.7 15.1749 9.5 15.4762C8.9 16.0788 8.9 16.6814 9 17.4848V21" stroke="#1E293B" stroke-width="2" stroke-linecap="round" stroke-linejoin="round"/>
<path d="M9 19C4.7 20.4 4.7 16.5 3 16" stroke="#1E293B" stroke-width="2" stroke-linecap="round" stroke-linejoin="round"/>
</svg>

<svg
  width="24"
  height="24"
  viewBox="0 0 24 24"
  xmlns="http://www.w3.org/2000/svg"
  fill="none"
  stroke="currentColor"
  stroke-width="2"
  stroke-linecap="round"
  stroke-linejoin="round"
>
  <path d="M15 21v-3.515c0-1.005.1-1.406-.5-2.009 2.8-.301 5.5-1.406 5.5-6.026a4.63 4.63 0 0 0-1.3-3.214 4.235 4.235 0 0 0-.1-3.214s-1.1-.3-3.5 1.306a12.249 12.249 0 0 0-6.2 0C6.5 2.721 5.4 3.022 5.4 3.022a4.235 4.235 0 0 0-.1 3.214A4.63 4.63 0 0 0 4 9.45c0 4.62 2.7 5.725 5.5 6.026-.6.603-.6 1.205-.5 2.009V21" />
  <path d="M9 19c-4.3 1.4-4.3-2.5-6-3" />
</svg>
